; G-Code generated by Simplify3D(R) Version 4.1.2
; Mar 9, 2020 at 1:57:39 PM
; Settings Summary
;   processName,Process1
;   applyToModels,light_tube
;   profileName,Wanhao Duplicator i3(2) (modified)
;   profileVersion,2020-03-01 10:36:20
;   baseProfile,
;   printMaterial,
;   printQuality,
;   printExtruders,
;   extruderName,Primary Extruder
;   extruderToolheadNumber,0
;   extruderDiameter,0.4
;   extruderAutoWidth,0
;   extruderWidth,0.4
;   extrusionMultiplier,0.95
;   extruderUseRetract,1
;   extruderRetractionDistance,0.5
;   extruderExtraRestartDistance,0
;   extruderRetractionZLift,0
;   extruderRetractionSpeed,1800
;   extruderUseCoasting,0
;   extruderCoastingDistance,0.2
;   extruderUseWipe,0
;   extruderWipeDistance,5
;   primaryExtruder,0
;   layerHeight,0.2
;   topSolidLayers,3
;   bottomSolidLayers,3
;   perimeterOutlines,3
;   printPerimetersInsideOut,1
;   startPointOption,2
;   startPointOriginX,0
;   startPointOriginY,0
;   sequentialIslands,0
;   spiralVaseMode,0
;   firstLayerHeightPercentage,90
;   firstLayerWidthPercentage,100
;   firstLayerUnderspeed,0.5
;   useRaft,0
;   raftExtruder,0
;   raftTopLayers,3
;   raftBaseLayers,2
;   raftOffset,3
;   raftSeparationDistance,0.14
;   raftTopInfill,100
;   aboveRaftSpeedMultiplier,0.3
;   useSkirt,1
;   skirtExtruder,0
;   skirtLayers,1
;   skirtOutlines,2
;   skirtOffset,5
;   usePrimePillar,0
;   primePillarExtruder,999
;   primePillarWidth,12
;   primePillarLocation,7
;   primePillarSpeedMultiplier,1
;   useOozeShield,0
;   oozeShieldExtruder,999
;   oozeShieldOffset,2
;   oozeShieldOutlines,1
;   oozeShieldSidewallShape,1
;   oozeShieldSidewallAngle,30
;   oozeShieldSpeedMultiplier,1
;   infillExtruder,0
;   internalInfillPattern,Rectilinear
;   externalInfillPattern,Rectilinear
;   infillPercentage,15
;   outlineOverlapPercentage,25
;   infillExtrusionWidthPercentage,125
;   minInfillLength,5
;   infillLayerInterval,1
;   internalInfillAngles,45,-45
;   overlapInternalInfillAngles,0
;   externalInfillAngles,45,-45
;   generateSupport,1
;   supportExtruder,0
;   supportInfillPercentage,30
;   supportExtraInflation,0
;   supportBaseLayers,0
;   denseSupportExtruder,0
;   denseSupportLayers,0
;   denseSupportInfillPercentage,70
;   supportLayerInterval,1
;   supportHorizontalPartOffset,0.3
;   supportUpperSeparationLayers,1
;   supportLowerSeparationLayers,1
;   supportType,0
;   supportGridSpacing,4
;   maxOverhangAngle,45
;   supportAngles,0
;   temperatureName,Primary Extruder,Heated Bed
;   temperatureNumber,0,0
;   temperatureSetpointCount,1,1
;   temperatureSetpointLayers,1,1
;   temperatureSetpointTemperatures,215,60
;   temperatureStabilizeAtStartup,1,1
;   temperatureHeatedBed,0,1
;   fanLayers,1,2,3
;   fanSpeeds,0,20,60
;   blipFanToFullPower,0
;   adjustSpeedForCooling,1
;   minSpeedLayerTime,15
;   minCoolingSpeedSlowdown,20
;   increaseFanForCooling,0
;   minFanLayerTime,45
;   maxCoolingFanSpeed,100
;   increaseFanForBridging,0
;   bridgingFanSpeed,100
;   use5D,1
;   relativeEdistances,0
;   allowEaxisZeroing,1
;   independentExtruderAxes,0
;   includeM10123,0
;   stickySupport,1
;   applyToolheadOffsets,0
;   gcodeXoffset,0
;   gcodeYoffset,0
;   gcodeZoffset,0
;   overrideMachineDefinition,1
;   machineTypeOverride,0
;   strokeXoverride,200
;   strokeYoverride,200
;   strokeZoverride,180
;   originOffsetXoverride,0
;   originOffsetYoverride,0
;   originOffsetZoverride,0
;   homeXdirOverride,-1
;   homeYdirOverride,-1
;   homeZdirOverride,-1
;   flipXoverride,1
;   flipYoverride,-1
;   flipZoverride,1
;   toolheadOffsets,0,0|0,0|0,0|0,0|0,0|0,0
;   overrideFirmwareConfiguration,1
;   firmwareTypeOverride,RepRap (Marlin/Repetier/Sprinter)
;   GPXconfigOverride,r2
;   baudRateOverride,115200
;   overridePrinterModels,1
;   printerModelsOverride
;   startingGcode,G28 ; home all axes
;   layerChangeGcode,
;   retractionGcode,
;   toolChangeGcode,
;   endingGcode,G28 X0 ; home X-axis,M104 S0 ; turn off extruder,M140 S0 ; turn off bed,M84 ; disable motors
;   exportFileFormat,gcode
;   celebration,0
;   celebrationSong,Random Song
;   postProcessing,
;   defaultSpeed,4500
;   outlineUnderspeed,0.5
;   solidInfillUnderspeed,0.8
;   supportUnderspeed,0.8
;   rapidXYspeed,3600
;   rapidZspeed,1002
;   minBridgingArea,50
;   bridgingExtraInflation,0
;   bridgingExtrusionMultiplier,1
;   bridgingSpeedMultiplier,1
;   useFixedBridgingAngle,0
;   fixedBridgingAngle,0
;   applyBridgingToPerimeters,0
;   filamentDiameters,1.75|1.75|1.75|1.75|1.75|1.75
;   filamentPricesPerKg,46|46|46|46|46|46
;   filamentDensities,1.25|1.25|1.25|1.25|1.25|1.25
;   useMinPrintHeight,0
;   minPrintHeight,0
;   useMaxPrintHeight,0
;   maxPrintHeight,0
;   useDiaphragm,0
;   diaphragmLayerInterval,20
;   robustSlicing,1
;   mergeAllIntoSolid,0
;   onlyRetractWhenCrossingOutline,0
;   retractBetweenLayers,1
;   useRetractionMinTravel,0
;   retractionMinTravel,3
;   retractWhileWiping,0
;   onlyWipeOutlines,1
;   avoidCrossingOutline,1
;   maxMovementDetourFactor,3
;   toolChangeRetractionDistance,12
;   toolChangeExtraRestartDistance,-0.5
;   toolChangeRetractionSpeed,600
;   externalThinWallType,0
;   internalThinWallType,1
;   thinWallAllowedOverlapPercentage,10
;   singleExtrusionMinLength,1
;   singleExtrusionMinPrintingWidthPercentage,50
;   singleExtrusionMaxPrintingWidthPercentage,200
;   singleExtrusionEndpointExtension,0.2
;   horizontalSizeCompensation,0
G90
M82
M106 S0
M140 S60
M190 S60
M104 S215 T0
M109 S215 T0
G28 ; home all axes
; process Process1
; layer 1, Z = 0.180
T0
G92 E0.0000
G1 E-0.5000 F1800
; feature skirt
; tool H0.180 W0.400
G1 Z0.180 F1002
G1 X20.321 Y36.145 F3600
G1 E0.0000 F1800
G92 E0.0000
G1 X29.023 Y32.087 E0.2731 F2250
G1 X30.470 Y30.640 E0.3312
G1 X105.110 Y30.640 E2.4538
G1 X105.274 Y30.805 E2.4604
G1 X105.892 Y30.803 E2.4780
G1 X107.638 Y31.384 E2.5303
G1 X111.051 Y33.963 E2.6520
G1 X110.418 Y40.229 E2.8311
G1 X106.883 Y41.916 E2.9425
G1 X106.802 Y41.948 E2.9449
G1 X105.110 Y43.640 E3.0130
G1 X35.006 Y43.642 E5.0066
G1 X25.815 Y47.927 E5.2950
G1 X21.456 Y46.341 E5.4269
G1 X18.734 Y40.505 E5.6100
G1 X20.321 Y36.145 E5.7419
G92 E0.0000
G1 E-0.5000 F1800
G1 X20.640 Y36.438 F3600
G1 E0.0000 F1800
G92 E0.0000
G1 X29.256 Y32.420 E0.2704 F2250
G1 X30.636 Y31.040 E0.3258
G1 X104.944 Y31.040 E2.4390
G1 X105.109 Y31.206 E2.4456
G1 X105.828 Y31.203 E2.4661
G1 X107.449 Y31.742 E2.5146
G1 X110.631 Y34.146 E2.6280
G1 X110.042 Y39.965 E2.7944
G1 X106.725 Y41.549 E2.8989
G1 X106.580 Y41.604 E2.9033
G1 X104.944 Y43.240 E2.9691
G1 X34.917 Y43.242 E4.9605
G1 X25.796 Y47.495 E5.2467
G1 X21.748 Y46.021 E5.3692
G1 X19.167 Y40.486 E5.5429
G1 X20.640 Y36.438 E5.6654
G92 E0.0000
G1 E-0.5000 F1800
; feature inner perimeter
G1 X25.056 Y40.337 F3600
G1 X25.246 Y40.248
G1 X25.587 Y40.531
G1 E0.0000 F1800
G92 E0.0000
G1 X32.656 Y37.234 E0.2218 F1688
G1 X32.910 Y37.778 E0.2389
G1 X25.841 Y41.074 E0.4607
G1 X25.587 Y40.531 E0.4777
G92 E0.0000
G1 E-0.5000 F1800
G1 X32.879 Y37.442 F3600
G1 E0.0000 F1800
G92 E0.0000
G1 X32.816 Y37.159 E0.0082 F1688
G1 X33.501 Y36.840 E0.0297
G1 X102.190 Y36.840 E1.9830
G1 X102.190 Y37.440 E2.0001
G1 X32.879 Y37.442 E3.9711
G92 E0.0000
G1 E-0.5000 F1800
; feature outer perimeter
G1 X33.381 Y37.842 F3600
G1 E0.0000 F1800
G92 E0.0000
G1 X33.442 Y37.971 E0.0041 F1125
G1 X25.647 Y41.606 E0.2486
G1 X25.056 Y40.337 E0.2884
G1 X32.990 Y36.637 E0.5374
G1 X32.990 Y36.440 E0.5430
G1 X102.590 Y36.440 E2.5222
G1 X102.590 Y36.789 E2.5322
G1 X103.141 Y36.714 E2.5480
G1 X104.240 Y36.610 E2.5794
G1 X104.502 Y36.608 E2.5868
G1 X103.657 Y36.857 E2.6119
G1 X102.590 Y37.110 E2.6430
G1 X102.590 Y37.840 E2.6638
G1 X33.381 Y37.842 E4.6319
G92 E0.0000
G1 E-0.5000 F1800
; feature internal single extrusion
; tool H0.180 W0.201
G1 X33.272 Y37.206 F3600
G1 E0.0000 F1800
G92 E0.0000
; tool H0.180 W0.200
G1 X33.354 Y37.188 E0.0012 F1125
G1 X33.514 Y37.153 E0.0035
G1 X33.594 Y37.141 E0.0047
; tool H0.180 W0.201
G1 X102.030 Y37.140 E0.9808
G92 E0.0000
G1 E-0.5000 F1800
; tool H0.180 W0.200
G1 X32.639 Y37.573 F3600
G1 E0.0000 F1800
G92 E0.0000
G1 X26.040 Y40.651 E0.1035 F1125
; tool H0.180 W0.200
G1 X25.858 Y40.735 E0.1064
G92 E0.0000
G1 E-0.5000 F1800
; layer 2, Z = 0.380
M106 S51
; feature inner perimeter
; tool H0.200 W0.400
G1 Z0.380 F1002
G1 X25.587 Y40.531 F3600
G1 E0.0000 F1800
G92 E0.0000
G1 X32.656 Y37.235 E0.2464 F2203
G1 X32.910 Y37.778 E0.2654
G1 X25.841 Y41.074 E0.5118
G1 X25.587 Y40.531 E0.5308
G92 E0.0000
G1 E-0.5000 F1800
G1 X32.873 Y37.444 F3600
G1 E0.0000 F1800
G92 E0.0000
G1 X32.811 Y37.162 E0.0091 F2203
G1 X33.501 Y36.840 E0.0332
G1 X102.190 Y36.840 E2.2036
G1 X102.190 Y37.440 E2.2225
G1 X32.873 Y37.444 E4.4127
G92 E0.0000
G1 E-0.5000 F1800
; feature outer perimeter
G1 X33.382 Y37.844 F3600
G1 E0.0000 F1800
G92 E0.0000
G1 X33.442 Y37.971 E0.0044 F1468
G1 X25.647 Y41.606 E0.2762
G1 X25.056 Y40.337 E0.3204
G1 X32.990 Y36.637 E0.5970
G1 X32.990 Y36.440 E0.6032
G1 X102.566 Y36.440 E2.8016
G1 X103.755 Y36.204 E2.8399
G1 X105.439 Y35.898 E2.8940
G1 X107.422 Y35.577 E2.9575
G1 X109.579 Y35.284 E3.0263
G1 X111.594 Y35.091 E3.0902
G1 X111.667 Y35.091 E3.0925
G1 X111.745 Y35.526 E3.1065
G1 X110.580 Y35.868 E3.1448
G1 X108.475 Y36.368 E3.2132
G1 X106.415 Y36.793 E3.2797
G1 X104.602 Y37.127 E3.3379
G1 X102.590 Y37.455 E3.4023
G1 X102.590 Y37.840 E3.4145
G1 X33.382 Y37.844 E5.6013
G92 E0.0000
G1 E-0.5000 F1800
; feature internal single extrusion
; tool H0.200 W0.202
G1 X33.246 Y37.214 F3600
G1 E0.0000 F1800
G92 E0.0000
; tool H0.200 W0.200
G1 X33.268 Y37.209 E0.0004 F1468
G1 X33.348 Y37.191 E0.0016
G1 X33.507 Y37.156 E0.0042
G1 X33.587 Y37.142 E0.0055
; tool H0.200 W0.202
G1 X102.030 Y37.140 E1.0974
G92 E0.0000
G1 E-0.5000 F1800
; tool H0.200 W0.200
G1 X102.523 Y36.959 F3600
G1 E0.0000 F1800
G92 E0.0000
; tool H0.200 W0.608
G1 X102.733 Y36.921 E0.0102 F1468
; tool H0.200 W0.627
G1 X103.818 Y36.725 E0.0648
; tool H0.200 W0.647
G1 X103.895 Y36.711 E0.0689
; tool H0.200 W0.653
G1 X104.438 Y36.617 E0.0973
; tool H0.200 W0.658
G1 X104.513 Y36.605 E0.1012
; tool H0.200 W0.659
G1 X104.588 Y36.591 E0.1052
; tool H0.200 W0.658
G1 X105.453 Y36.433 E0.1509
; tool H0.200 W0.657
G1 X105.531 Y36.418 E0.1550
; tool H0.200 W0.656
G1 X105.610 Y36.405 E0.1592
; tool H0.200 W0.648
G1 X106.240 Y36.296 E0.1919
; tool H0.200 W0.641
G1 X106.315 Y36.283 E0.1958
; tool H0.200 W0.638
G1 X106.388 Y36.269 E0.1995
; tool H0.200 W0.635
G1 X106.465 Y36.255 E0.2034
; tool H0.200 W0.612
G1 X107.459 Y36.072 E0.2523
; tool H0.200 W0.588
G1 X107.536 Y36.059 E0.2559
; tool H0.200 W0.580
G1 X107.689 Y36.033 E0.2630
; tool H0.200 W0.554
G1 X108.302 Y35.928 E0.2902
; tool H0.200 W0.530
G1 X108.375 Y35.915 E0.2933
; tool H0.200 W0.524
G1 X108.450 Y35.901 E0.2964
; tool H0.200 W0.512
G1 X108.607 Y35.872 E0.3029
; tool H0.200 W0.481
G1 X109.078 Y35.784 E0.3211
; tool H0.200 W0.434
G1 X109.550 Y35.696 E0.3376
; tool H0.200 W0.406
G1 X109.628 Y35.682 E0.3401
; tool H0.200 W0.397
G1 X109.707 Y35.669 E0.3426
; tool H0.200 W0.386
G1 X109.786 Y35.656 E0.3451
; tool H0.200 W0.358
G1 X110.102 Y35.603 E0.3541
; tool H0.200 W0.314
G1 X110.417 Y35.551 E0.3621
; tool H0.200 W0.287
G1 X110.493 Y35.539 E0.3638
; tool H0.200 W0.274
G1 X110.567 Y35.524 E0.3654
; tool H0.200 W0.252
G1 X110.723 Y35.494 E0.3686
; tool H0.200 W0.214
G1 X110.957 Y35.449 E0.3726
; tool H0.200 W0.200
G1 X111.192 Y35.404 E0.3764
G1 X111.426 Y35.359 E0.3802
G1 X111.623 Y35.321 E0.3833
G92 E0.0000
G1 E-0.5000 F1800
; tool H0.200 W0.200
G1 X108.691 Y35.404 F3600
G1 X107.422 Y35.577
G1 X105.439 Y35.898
G1 X103.755 Y36.204
G1 X102.566 Y36.440
G1 X72.370 Y36.440
G1 X32.638 Y37.574
G1 E0.0000 F1800
G92 E0.0000
G1 X26.040 Y40.651 E0.1150 F1468
G1 X25.858 Y40.735 E0.1182
G92 E0.0000
G1 E-0.5000 F1800
; layer 3, Z = 0.580
M106 S153
; feature inner perimeter
; tool H0.200 W0.400
G1 Z0.580 F1002
G1 X26.046 Y40.758 F3600
G1 E0.0000 F1800
G92 E0.0000
G1 X27.790 Y39.945 E0.0608 F2366
G1 X27.790 Y41.040 E0.0954
G1 X26.108 Y41.040 E0.1486
G1 X26.046 Y40.758 E0.1577
G92 E0.0000
G1 E-0.5000 F1800
G1 X24.923 Y40.840 F3600
G1 E0.0000 F1800
G92 E0.0000
G1 X32.656 Y37.234 E0.2696 F2366
G1 X32.910 Y37.778 E0.2885
G1 X28.190 Y39.979 E0.4531
G1 X28.190 Y41.440 E0.4993
G1 X23.390 Y41.440 E0.6509
G1 X23.390 Y40.840 E0.6699
G1 X24.923 Y40.840 E0.7183
G92 E0.0000
G1 E-0.5000 F1800
G1 X32.882 Y37.440 F3600
G1 E0.0000 F1800
G92 E0.0000
G1 X32.819 Y37.158 E0.0091 F2366
G1 X33.501 Y36.840 E0.0329
G1 X101.799 Y36.838 E2.1909
G1 X104.181 Y36.279 E2.2682
G1 X105.801 Y35.933 E2.3206
G1 X106.642 Y35.766 E2.3477
G1 X106.625 Y36.358 E2.3664
G1 X106.847 Y36.646 E2.3779
G1 X104.951 Y36.932 E2.4385
G1 X102.190 Y37.295 E2.5265
G1 X102.190 Y37.440 E2.5311
G1 X32.882 Y37.440 E4.7210
G92 E0.0000
G1 E-0.5000 F1800
G1 X70.094 Y36.439 F3600
G1 X101.752 Y36.438
G1 X104.094 Y35.889
G1 X105.719 Y35.541
G1 X106.069 Y35.472
G1 X108.511 Y35.406
G1 E0.0000 F1800
G92 E0.0000
G1 X110.308 Y35.079 E0.0577 F2366
G1 X111.197 Y34.935 E0.0862
G1 X111.360 Y35.846 E0.1154
G1 X108.967 Y36.292 E0.1923
G1 X108.720 Y36.334 E0.2003
G1 X108.511 Y35.406 E0.2303
G92 E0.0000
G1 E-0.5000 F1800
; feature outer perimeter
G1 X107.750 Y35.138 F3600
G1 E0.0000 F1800
G92 E0.0000
G1 X110.239 Y34.685 E0.0799 F1578
G1 X111.522 Y34.477 E0.1210
G1 X111.824 Y36.167 E0.1752
G1 X109.036 Y36.686 E0.2648
G1 X106.810 Y37.056 E0.3361
G1 X105.008 Y37.328 E0.3937
G1 X102.590 Y37.646 E0.4708
G1 X102.590 Y37.840 E0.4769
G1 X33.380 Y37.840 E2.6637
G1 X33.442 Y37.971 E2.6683
G1 X28.590 Y40.234 E2.8375
G1 X28.590 Y41.840 E2.8882
G1 X22.990 Y41.840 E3.0652
G1 X22.990 Y40.440 E3.1094
G1 X24.834 Y40.440 E3.1677
G1 X32.990 Y36.637 E3.4520
G1 X32.990 Y36.440 E3.4582
G1 X101.752 Y36.438 E5.6309
G1 X104.094 Y35.889 E5.7069
G1 X105.719 Y35.541 E5.7594
G1 X107.750 Y35.138 E5.8249
G92 E0.0000
G1 E-0.5000 F1800
G1 X107.570 Y35.432 F3600
G1 E0.0000 F1800
G92 E0.0000
G1 X107.235 Y35.578 E0.0115 F1578
G1 X107.039 Y35.887 E0.0231
G1 X107.029 Y36.227 E0.0338
G1 X107.244 Y36.506 E0.0450
G1 X107.439 Y36.617 E0.0521
G1 X107.779 Y36.623 E0.0628
G1 X108.086 Y36.433 E0.0742
G1 X108.260 Y36.111 E0.0858
G1 X108.173 Y35.727 E0.0982
G1 X107.926 Y35.541 E0.1080
G1 X107.570 Y35.432 E0.1198
G92 E0.0000
G1 E-0.5000 F1800
; feature internal single extrusion
; tool H0.200 W0.538
G1 X108.908 Y35.818 F3600
G1 E0.0000 F1800
G92 E0.0000
; tool H0.200 W0.553
G1 X109.117 Y35.780 E0.0093 F1578
; tool H0.200 W0.550
G1 X110.372 Y35.549 E0.0648
; tool H0.200 W0.546
G1 X110.451 Y35.535 E0.0682
; tool H0.200 W0.542
G1 X110.765 Y35.480 E0.0819
; tool H0.200 W0.538
G1 X110.967 Y35.445 E0.0906
G92 E0.0000
G1 E-0.5000 F1800
; tool H0.200 W0.200
G1 X108.249 Y36.064 F3600
G1 X108.260 Y36.111
G1 X108.086 Y36.433
G1 X107.779 Y36.623
G1 X107.439 Y36.617
G1 X107.244 Y36.506
G1 X107.105 Y36.325
G1 X106.430 Y36.478
G1 E0.0000 F1800
G92 E0.0000
G1 X106.397 Y36.465 E0.0006 F1578
G1 X106.309 Y36.409 E0.0022
; tool H0.200 W0.324
G1 X106.217 Y36.328 E0.0054
; tool H0.200 W0.446
G1 X106.135 Y36.312 E0.0083
; tool H0.200 W0.468
G1 X105.902 Y36.353 E0.0170
; tool H0.200 W0.461
G1 X105.824 Y36.367 E0.0199
; tool H0.200 W0.437
G1 X105.126 Y36.494 E0.0444
; tool H0.200 W0.410
G1 X104.971 Y36.522 E0.0495
; tool H0.200 W0.403
G1 X104.895 Y36.536 E0.0519
; tool H0.200 W0.397
G1 X104.818 Y36.549 E0.0544
; tool H0.200 W0.372
G1 X104.266 Y36.644 E0.0708
; tool H0.200 W0.345
G1 X104.188 Y36.658 E0.0730
; tool H0.200 W0.317
G1 X103.715 Y36.745 E0.0851
; tool H0.200 W0.269
G1 X103.242 Y36.831 E0.0953
; tool H0.200 W0.221
G1 X102.770 Y36.917 E0.1037
; tool H0.200 W0.200
G1 X102.297 Y37.004 E0.1113
G1 X102.061 Y37.047 E0.1151
G1 X101.982 Y37.061 E0.1163
G1 X101.962 Y37.067 E0.1167
G1 X101.941 Y37.077 E0.1170
G1 X101.920 Y37.093 E0.1175
G1 X101.830 Y37.139 E0.1191
; tool H0.200 W0.202
G1 X101.750 Y37.139 E0.1203
; tool H0.200 W0.201
G1 X33.596 Y37.140 E1.2021
; tool H0.200 W0.200
G1 X33.516 Y37.152 E1.2034
G1 X33.356 Y37.187 E1.2060
G1 X33.274 Y37.205 E1.2073
G92 E0.0000
G1 E-0.5000 F1800
G1 X32.640 Y37.573 F3600
G1 E0.0000 F1800
G92 E0.0000
G1 X28.095 Y39.692 E0.0792 F1578
