; G-Code generated by Simplify3D(R) Version 4.1.2
; Mar 8, 2020 at 4:16:55 PM
; Settings Summary
;   processName,Process1
;   applyToModels,unidisk_case(2)
;   profileName,Wanhao Duplicator i3(2) (modified)
;   profileVersion,2020-03-01 10:36:20
;   baseProfile,
;   printMaterial,
;   printQuality,
;   printExtruders,
;   extruderName,Primary Extruder
;   extruderToolheadNumber,0
;   extruderDiameter,0.4
;   extruderAutoWidth,0
;   extruderWidth,0.4
;   extrusionMultiplier,0.95
;   extruderUseRetract,1
;   extruderRetractionDistance,0.5
;   extruderExtraRestartDistance,0
;   extruderRetractionZLift,0
;   extruderRetractionSpeed,1800
;   extruderUseCoasting,0
;   extruderCoastingDistance,0.2
;   extruderUseWipe,0
;   extruderWipeDistance,5
;   primaryExtruder,0
;   layerHeight,0.2
;   topSolidLayers,3
;   bottomSolidLayers,3
;   perimeterOutlines,3
;   printPerimetersInsideOut,1
;   startPointOption,2
;   startPointOriginX,0
;   startPointOriginY,0
;   sequentialIslands,0
;   spiralVaseMode,0
;   firstLayerHeightPercentage,90
;   firstLayerWidthPercentage,100
;   firstLayerUnderspeed,0.5
;   useRaft,0
;   raftExtruder,0
;   raftTopLayers,3
;   raftBaseLayers,2
;   raftOffset,3
;   raftSeparationDistance,0.14
;   raftTopInfill,100
;   aboveRaftSpeedMultiplier,0.3
;   useSkirt,1
;   skirtExtruder,0
;   skirtLayers,1
;   skirtOutlines,2
;   skirtOffset,5
;   usePrimePillar,0
;   primePillarExtruder,999
;   primePillarWidth,12
;   primePillarLocation,7
;   primePillarSpeedMultiplier,1
;   useOozeShield,0
;   oozeShieldExtruder,999
;   oozeShieldOffset,2
;   oozeShieldOutlines,1
;   oozeShieldSidewallShape,1
;   oozeShieldSidewallAngle,30
;   oozeShieldSpeedMultiplier,1
;   infillExtruder,0
;   internalInfillPattern,Rectilinear
;   externalInfillPattern,Rectilinear
;   infillPercentage,15
;   outlineOverlapPercentage,25
;   infillExtrusionWidthPercentage,125
;   minInfillLength,5
;   infillLayerInterval,1
;   internalInfillAngles,45,-45
;   overlapInternalInfillAngles,0
;   externalInfillAngles,45,-45
;   generateSupport,1
;   supportExtruder,0
;   supportInfillPercentage,30
;   supportExtraInflation,0
;   supportBaseLayers,0
;   denseSupportExtruder,0
;   denseSupportLayers,0
;   denseSupportInfillPercentage,70
;   supportLayerInterval,1
;   supportHorizontalPartOffset,0.3
;   supportUpperSeparationLayers,1
;   supportLowerSeparationLayers,1
;   supportType,0
;   supportGridSpacing,4
;   maxOverhangAngle,45
;   supportAngles,0
;   temperatureName,Primary Extruder,Heated Bed
;   temperatureNumber,0,0
;   temperatureSetpointCount,1,1
;   temperatureSetpointLayers,1,1
;   temperatureSetpointTemperatures,215,60
;   temperatureStabilizeAtStartup,1,1
;   temperatureHeatedBed,0,1
;   fanLayers,1,2,3
;   fanSpeeds,0,20,60
;   blipFanToFullPower,0
;   adjustSpeedForCooling,1
;   minSpeedLayerTime,15
;   minCoolingSpeedSlowdown,20
;   increaseFanForCooling,0
;   minFanLayerTime,45
;   maxCoolingFanSpeed,100
;   increaseFanForBridging,0
;   bridgingFanSpeed,100
;   use5D,1
;   relativeEdistances,0
;   allowEaxisZeroing,1
;   independentExtruderAxes,0
;   includeM10123,0
;   stickySupport,1
;   applyToolheadOffsets,0
;   gcodeXoffset,0
;   gcodeYoffset,0
;   gcodeZoffset,0
;   overrideMachineDefinition,1
;   machineTypeOverride,0
;   strokeXoverride,200
;   strokeYoverride,200
;   strokeZoverride,180
;   originOffsetXoverride,0
;   originOffsetYoverride,0
;   originOffsetZoverride,0
;   homeXdirOverride,-1
;   homeYdirOverride,-1
;   homeZdirOverride,-1
;   flipXoverride,1
;   flipYoverride,-1
;   flipZoverride,1
;   toolheadOffsets,0,0|0,0|0,0|0,0|0,0|0,0
;   overrideFirmwareConfiguration,1
;   firmwareTypeOverride,RepRap (Marlin/Repetier/Sprinter)
;   GPXconfigOverride,r2
;   baudRateOverride,115200
;   overridePrinterModels,1
;   printerModelsOverride
;   startingGcode,G28 ; home all axes
;   layerChangeGcode,
;   retractionGcode,
;   toolChangeGcode,
;   endingGcode,G28 X0 ; home X-axis,M104 S0 ; turn off extruder,M140 S0 ; turn off bed,M84 ; disable motors
;   exportFileFormat,gcode
;   celebration,0
;   celebrationSong,Random Song
;   postProcessing,
;   defaultSpeed,4500
;   outlineUnderspeed,0.5
;   solidInfillUnderspeed,0.8
;   supportUnderspeed,0.8
;   rapidXYspeed,3600
;   rapidZspeed,1002
;   minBridgingArea,50
;   bridgingExtraInflation,0
;   bridgingExtrusionMultiplier,1
;   bridgingSpeedMultiplier,1
;   useFixedBridgingAngle,0
;   fixedBridgingAngle,0
;   applyBridgingToPerimeters,0
;   filamentDiameters,1.75|1.75|1.75|1.75|1.75|1.75
;   filamentPricesPerKg,46|46|46|46|46|46
;   filamentDensities,1.25|1.25|1.25|1.25|1.25|1.25
;   useMinPrintHeight,0
;   minPrintHeight,0
;   useMaxPrintHeight,0
;   maxPrintHeight,0
;   useDiaphragm,0
;   diaphragmLayerInterval,20
;   robustSlicing,1
;   mergeAllIntoSolid,0
;   onlyRetractWhenCrossingOutline,0
;   retractBetweenLayers,1
;   useRetractionMinTravel,0
;   retractionMinTravel,3
;   retractWhileWiping,0
;   onlyWipeOutlines,1
;   avoidCrossingOutline,1
;   maxMovementDetourFactor,3
;   toolChangeRetractionDistance,12
;   toolChangeExtraRestartDistance,-0.5
;   toolChangeRetractionSpeed,600
;   externalThinWallType,0
;   internalThinWallType,1
;   thinWallAllowedOverlapPercentage,10
;   singleExtrusionMinLength,1
;   singleExtrusionMinPrintingWidthPercentage,50
;   singleExtrusionMaxPrintingWidthPercentage,200
;   singleExtrusionEndpointExtension,0.2
;   horizontalSizeCompensation,0
G90
M82
M106 S0
M140 S60
M190 S60
M104 S215 T0
M109 S215 T0
G28 ; home all axes
; process Process1
; layer 1, Z = 0.180
T0
G92 E0.0000
G1 E-0.5000 F1800
; feature skirt
; tool H0.180 W0.400
G1 Z0.180 F1002
G1 X48.410 Y65.129 F3600
G1 E0.0000 F1800
G92 E0.0000
G1 X148.967 Y65.129 E2.8596 F2250
G1 X149.441 Y65.170 E2.8731
G1 X151.909 Y65.593 E2.9443
G1 X154.547 Y68.721 E3.0607
G1 X154.547 Y129.880 E4.7999
G1 X153.694 Y131.939 E4.8633
G1 X151.939 Y133.694 E4.9338
G1 X149.880 Y134.547 E4.9972
G1 X48.721 Y134.547 E7.8739
G1 X45.593 Y131.909 E7.9903
G1 X45.170 Y129.441 E8.0615
G1 X45.129 Y128.967 E8.0750
G1 X45.129 Y68.410 E9.7971
G1 X48.410 Y65.129 E9.9290
G92 E0.0000
G1 E-0.5000 F1800
G1 X48.575 Y65.529 F3600
G1 E0.0000 F1800
G92 E0.0000
G1 X148.950 Y65.529 E2.8544 F2250
G1 X149.391 Y65.567 E2.8670
G1 X151.698 Y65.963 E2.9335
G1 X154.147 Y68.867 E3.0416
G1 X154.147 Y129.801 E4.7744
G1 X153.355 Y131.712 E4.8332
G1 X151.712 Y133.355 E4.8993
G1 X149.801 Y134.147 E4.9581
G1 X48.867 Y134.147 E7.8284
G1 X45.963 Y131.698 E7.9364
G1 X45.567 Y129.391 E8.0030
G1 X45.529 Y128.950 E8.0156
G1 X45.529 Y68.575 E9.7325
G1 X48.575 Y65.529 E9.8550
G92 E0.0000
G1 E-0.5000 F1800
; feature inner perimeter
G1 X50.929 Y70.929 F3600
G1 X51.322 Y70.929
G1 X51.729 Y71.729
G1 E0.0000 F1800
G92 E0.0000
G1 X147.947 Y71.729 E2.7362 F1688
G1 X147.947 Y127.947 E4.3348
G1 X51.729 Y127.947 E7.0710
G1 X51.729 Y71.729 E8.6697
G92 E0.0000
G1 E-0.5000 F1800
G1 X51.329 Y71.329 F3600
G1 E0.0000 F1800
G92 E0.0000
G1 X148.347 Y71.329 E2.7589 F1688
G1 X148.347 Y128.347 E4.3803
G1 X51.329 Y128.347 E7.1393
G1 X51.329 Y71.329 E8.7607
G92 E0.0000
G1 E-0.5000 F1800
; feature outer perimeter
G1 X50.929 Y70.929 F3600
G1 E0.0000 F1800
G92 E0.0000
G1 X148.712 Y70.929 E2.7807 F1125
G1 X148.747 Y70.935 E2.7817
G1 X148.747 Y128.684 E4.4239
G1 X148.684 Y128.747 E4.4264
G1 X50.935 Y128.747 E7.2061
G1 X50.929 Y128.712 E7.2071
G1 X50.929 Y70.929 E8.8503
G92 E0.0000
G1 E-0.5000 F1800
; feature solid layer
G1 X52.410 Y127.647 F3600
G1 E0.0000 F1800
G92 E0.0000
G1 X52.029 Y127.265 E0.0153 F1800
G1 X52.029 Y126.700 E0.0314
G1 X52.976 Y127.647 E0.0695
G1 X53.542 Y127.647 E0.0856
G1 X52.029 Y126.134 E0.1464
G1 X52.029 Y125.568 E0.1625
G1 X54.107 Y127.647 E0.2461
G1 X54.673 Y127.647 E0.2622
G1 X52.029 Y125.003 E0.3685
G1 X52.029 Y124.437 E0.3846
G1 X55.239 Y127.647 E0.5136
G1 X55.805 Y127.647 E0.5297
G1 X52.029 Y123.871 E0.6816
G1 X52.029 Y123.306 E0.6976
G1 X56.370 Y127.647 E0.8722
G1 X56.936 Y127.647 E0.8883
G1 X52.029 Y122.740 E1.0856
G1 X52.029 Y122.174 E1.1017
G1 X57.502 Y127.647 E1.3218
G1 X58.067 Y127.647 E1.3379
G1 X52.029 Y121.609 E1.5807
G1 X52.029 Y121.043 E1.5968
G1 X58.633 Y127.647 E1.8624
G1 X59.199 Y127.647 E1.8785
G1 X52.029 Y120.477 E2.1668
G1 X52.029 Y119.911 E2.1829
G1 X59.764 Y127.647 E2.4940
G1 X60.330 Y127.647 E2.5100
G1 X52.029 Y119.346 E2.8439
G1 X52.029 Y118.780 E2.8600
G1 X60.896 Y127.647 E3.2165
G1 X61.461 Y127.647 E3.2326
G1 X52.029 Y118.214 E3.6119
G1 X52.029 Y117.649 E3.6280
G1 X62.027 Y127.647 E4.0301
G1 X62.593 Y127.647 E4.0462
G1 X52.029 Y117.083 E4.4710
G1 X52.029 Y116.517 E4.4871
G1 X63.158 Y127.647 E4.9347
G1 X63.724 Y127.647 E4.9508
G1 X52.029 Y115.952 E5.4211
G1 X52.029 Y115.386 E5.4372
G1 X64.290 Y127.647 E5.9303
G1 X64.855 Y127.647 E5.9464
G1 X52.029 Y114.820 E6.4622
G1 X52.029 Y114.255 E6.4783
G1 X65.421 Y127.647 E7.0168
G1 X65.987 Y127.647 E7.0329
G1 X52.029 Y113.689 E7.5943
G1 X52.029 Y113.123 E7.6103
G1 X66.553 Y127.647 E8.1944
G1 X67.118 Y127.647 E8.2105
G1 X52.029 Y112.558 E8.8173
G1 X52.029 Y111.992 E8.8334
G1 X67.684 Y127.647 E9.4630
G1 X68.250 Y127.647 E9.4791
G1 X52.029 Y111.426 E10.1314
G1 X52.029 Y110.861 E10.1475
G1 X68.815 Y127.647 E10.8226
G1 X69.381 Y127.647 E10.8387
G1 X52.029 Y110.295 E11.5365
G1 X52.029 Y109.729 E11.5526
G1 X69.947 Y127.647 E12.2731
G1 X70.512 Y127.647 E12.2892
G1 X52.029 Y109.163 E13.0326
G1 X52.029 Y108.598 E13.0486
G1 X71.078 Y127.647 E13.8147
G1 X71.644 Y127.647 E13.8308
G1 X52.029 Y108.032 E14.6196
G1 X52.029 Y107.466 E14.6357
G1 X72.209 Y127.647 E15.4473
G1 X72.775 Y127.647 E15.4634
G1 X52.029 Y106.901 E16.2977
G1 X52.029 Y106.335 E16.3138
G1 X73.341 Y127.647 E17.1709
G1 X73.906 Y127.647 E17.1870
G1 X52.029 Y105.769 E18.0668
G1 X52.029 Y105.204 E18.0829
G1 X74.472 Y127.647 E18.9854
G1 X75.038 Y127.647 E19.0015
G1 X52.029 Y104.638 E19.9268
G1 X52.029 Y104.072 E19.9429
G1 X75.603 Y127.647 E20.8910
G1 X76.169 Y127.647 E20.9071
G1 X52.029 Y103.507 E21.8779
G1 X52.029 Y102.941 E21.8940
G1 X76.735 Y127.647 E22.8876
G1 X77.301 Y127.647 E22.9037
G1 X52.029 Y102.375 E23.9200
G1 X52.029 Y101.810 E23.9361
G1 X77.866 Y127.647 E24.9752
G1 X78.432 Y127.647 E24.9912
G1 X52.029 Y101.244 E26.0531
G1 X52.029 Y100.678 E26.0692
G1 X78.998 Y127.647 E27.1537
G1 X79.563 Y127.647 E27.1698
G1 X52.029 Y100.113 E28.2771
G1 X52.029 Y99.547 E28.2932
G1 X80.129 Y127.647 E29.4233
G1 X80.695 Y127.647 E29.4394
G1 X52.029 Y98.981 E30.5922
G1 X52.029 Y98.415 E30.6083
G1 X81.260 Y127.647 E31.7839
G1 X81.826 Y127.647 E31.8000
G1 X52.029 Y97.850 E32.9983
G1 X52.029 Y97.284 E33.0144
G1 X82.392 Y127.647 E34.2354
G1 X82.957 Y127.647 E34.2515
G1 X52.029 Y96.718 E35.4954
G1 X52.029 Y96.153 E35.5114
G1 X83.523 Y127.647 E36.7780
G1 X84.089 Y127.647 E36.7941
G1 X52.029 Y95.587 E38.0834
G1 X52.029 Y95.021 E38.0995
G1 X84.654 Y127.647 E39.4116
G1 X85.220 Y127.647 E39.4277
G1 X52.029 Y94.456 E40.7625
G1 X52.029 Y93.890 E40.7786
G1 X85.786 Y127.647 E42.1362
G1 X86.352 Y127.647 E42.1522
G1 X52.029 Y93.324 E43.5326
G1 X52.029 Y92.759 E43.5487
G1 X86.917 Y127.647 E44.9517
G1 X87.483 Y127.647 E44.9678
G1 X52.029 Y92.193 E46.3936
G1 X52.029 Y91.627 E46.4097
G1 X88.049 Y127.647 E47.8583
G1 X88.614 Y127.647 E47.8744
G1 X52.029 Y91.062 E49.3457
G1 X52.029 Y90.496 E49.3618
G1 X89.180 Y127.647 E50.8559
G1 X89.746 Y127.647 E50.8720
G1 X52.029 Y89.930 E52.3888
G1 X52.029 Y89.364 E52.4049
G1 X90.311 Y127.647 E53.9444
G1 X90.877 Y127.647 E53.9605
G1 X52.029 Y88.799 E55.5229
G1 X52.029 Y88.233 E55.5389
G1 X91.443 Y127.647 E57.1240
G1 X92.008 Y127.647 E57.1401
G1 X52.029 Y87.667 E58.7479
G1 X52.029 Y87.102 E58.7640
G1 X92.574 Y127.647 E60.3946
G1 X93.140 Y127.647 E60.4107
G1 X52.029 Y86.536 E62.0640
G1 X52.029 Y85.970 E62.0801
G1 X93.705 Y127.647 E63.7561
G1 X94.271 Y127.647 E63.7722
G1 X52.029 Y85.405 E65.4711
G1 X52.029 Y84.839 E65.4871
G1 X94.837 Y127.647 E67.2087
G1 X95.402 Y127.647 E67.2248
G1 X52.029 Y84.273 E68.9691
G1 X52.029 Y83.708 E68.9852
G1 X95.968 Y127.647 E70.7523
G1 X96.534 Y127.647 E70.7684
G1 X52.029 Y83.142 E72.5582
G1 X52.029 Y82.576 E72.5743
G1 X97.100 Y127.647 E74.3869
G1 X97.665 Y127.647 E74.4029
G1 X52.029 Y82.011 E76.2383
G1 X52.029 Y81.445 E76.2544
G1 X98.231 Y127.647 E78.1124
G1 X98.797 Y127.647 E78.1285
G1 X52.029 Y80.879 E80.0093
G1 X52.029 Y80.314 E80.0254
G1 X99.362 Y127.647 E81.9290
G1 X99.928 Y127.647 E81.9451
G1 X52.029 Y79.748 E83.8714
G1 X52.029 Y79.182 E83.8875
G1 X100.494 Y127.647 E85.8366
G1 X101.059 Y127.647 E85.8526
G1 X52.029 Y78.616 E87.8245
G1 X52.029 Y78.051 E87.8406
G1 X101.625 Y127.647 E89.8351
G1 X102.191 Y127.647 E89.8512
G1 X52.029 Y77.485 E91.8685
G1 X52.029 Y76.919 E91.8846
G1 X102.756 Y127.647 E93.9247
G1 X103.322 Y127.647 E93.9408
G1 X52.029 Y76.354 E96.0036
G1 X52.029 Y75.788 E96.0197
G1 X103.888 Y127.647 E98.1053
G1 X104.453 Y127.647 E98.1213
G1 X52.029 Y75.222 E100.2297
G1 X52.029 Y74.657 E100.2458
G1 X105.019 Y127.647 E102.3768
G1 X105.585 Y127.647 E102.3929
G1 X52.029 Y74.091 E104.5467
G1 X52.029 Y73.525 E104.5628
G1 X106.151 Y127.647 E106.7394
G1 X106.716 Y127.647 E106.7555
G1 X52.029 Y72.960 E108.9548
G1 X52.029 Y72.394 E108.9709
G1 X107.282 Y127.647 E111.1930
G1 X107.848 Y127.647 E111.2090
G1 X52.230 Y72.029 E113.4458
G1 X52.796 Y72.029 E113.4619
G1 X108.413 Y127.647 E115.6986
G1 X108.979 Y127.647 E115.7147
G1 X53.362 Y72.029 E117.9514
G1 X53.927 Y72.029 E117.9675
G1 X109.545 Y127.647 E120.2043
G1 X110.110 Y127.647 E120.2203
G1 X54.493 Y72.029 E122.4571
G1 X55.059 Y72.029 E122.4732
G1 X110.676 Y127.647 E124.7099
G1 X111.242 Y127.647 E124.7260
G1 X55.624 Y72.029 E126.9627
G1 X56.190 Y72.029 E126.9788
G1 X111.807 Y127.647 E129.2155
G1 X112.373 Y127.647 E129.2316
G1 X56.756 Y72.029 E131.4684
G1 X57.321 Y72.029 E131.4845
G1 X112.939 Y127.647 E133.7212
G1 X113.504 Y127.647 E133.7373
G1 X57.887 Y72.029 E135.9740
G1 X58.453 Y72.029 E135.9901
G1 X114.070 Y127.647 E138.2268
G1 X114.636 Y127.647 E138.2429
G1 X59.019 Y72.029 E140.4797
G1 X59.584 Y72.029 E140.4958
G1 X115.201 Y127.647 E142.7325
G1 X115.767 Y127.647 E142.7486
G1 X60.150 Y72.029 E144.9853
G1 X60.716 Y72.029 E145.0014
G1 X116.333 Y127.647 E147.2381
G1 X116.899 Y127.647 E147.2542
G1 X61.281 Y72.029 E149.4910
G1 X61.847 Y72.029 E149.5070
G1 X117.464 Y127.647 E151.7438
G1 X118.030 Y127.647 E151.7599
G1 X62.413 Y72.029 E153.9966
G1 X62.978 Y72.029 E154.0127
G1 X118.596 Y127.647 E156.2494
G1 X119.161 Y127.647 E156.2655
G1 X63.544 Y72.029 E158.5023
G1 X64.110 Y72.029 E158.5183
G1 X119.727 Y127.647 E160.7551
G1 X120.293 Y127.647 E160.7712
G1 X64.675 Y72.029 E163.0079
G1 X65.241 Y72.029 E163.0240
G1 X120.858 Y127.647 E165.2607
G1 X121.424 Y127.647 E165.2768
G1 X65.807 Y72.029 E167.5135
G1 X66.372 Y72.029 E167.5296
G1 X121.990 Y127.647 E169.7664
G1 X122.555 Y127.647 E169.7825
G1 X66.938 Y72.029 E172.0192
G1 X67.504 Y72.029 E172.0353
G1 X123.121 Y127.647 E174.2720
G1 X123.687 Y127.647 E174.2881
G1 X68.069 Y72.029 E176.5248
G1 X68.635 Y72.029 E176.5409
G1 X124.252 Y127.647 E178.7777
G1 X124.818 Y127.647 E178.7937
G1 X69.201 Y72.029 E181.0305
G1 X69.767 Y72.029 E181.0466
G1 X125.384 Y127.647 E183.2833
G1 X125.949 Y127.647 E183.2994
G1 X70.332 Y72.029 E185.5361
G1 X70.898 Y72.029 E185.5522
G1 X126.515 Y127.647 E187.7890
G1 X127.081 Y127.647 E187.8050
G1 X71.464 Y72.029 E190.0418
G1 X72.029 Y72.029 E190.0579
G1 X127.647 Y127.647 E192.2946
G1 X128.212 Y127.647 E192.3107
G1 X72.595 Y72.029 E194.5474
G1 X73.161 Y72.029 E194.5635
G1 X128.778 Y127.647 E196.8002
G1 X129.344 Y127.647 E196.8163
G1 X73.726 Y72.029 E199.0531
G1 X74.292 Y72.029 E199.0692
G1 X129.909 Y127.647 E201.3059
G1 X130.475 Y127.647 E201.3220
G1 X74.858 Y72.029 E203.5587
G1 X75.423 Y72.029 E203.5748
G1 X131.041 Y127.647 E205.8115
G1 X131.606 Y127.647 E205.8276
G1 X75.989 Y72.029 E208.0644
G1 X76.555 Y72.029 E208.0805
G1 X132.172 Y127.647 E210.3172
G1 X132.738 Y127.647 E210.3333
G1 X77.120 Y72.029 E212.5700
G1 X77.686 Y72.029 E212.5861
G1 X133.303 Y127.647 E214.8228
G1 X133.869 Y127.647 E214.8389
G1 X78.252 Y72.029 E217.0757
G1 X78.817 Y72.029 E217.0917
G1 X134.435 Y127.647 E219.3285
G1 X135.000 Y127.647 E219.3446
G1 X79.383 Y72.029 E221.5813
