; G-Code generated by Simplify3D(R) Version 4.1.2
; Apr 2, 2020 at 12:41:27 PM
; Settings Summary
;   processName,No Support
;   applyToModels,case(2),case(3),case(4)
;   profileName,Wanhao Duplicator i3 (modified)
;   profileVersion,2019-12-15 13:33:55
;   baseProfile,
;   printMaterial,
;   printQuality,
;   printExtruders,
;   extruderName,Primary Extruder
;   extruderToolheadNumber,0
;   extruderDiameter,0.4
;   extruderAutoWidth,0
;   extruderWidth,0.4
;   extrusionMultiplier,0.95
;   extruderUseRetract,1
;   extruderRetractionDistance,0.5
;   extruderExtraRestartDistance,0
;   extruderRetractionZLift,0
;   extruderRetractionSpeed,1800
;   extruderUseCoasting,0
;   extruderCoastingDistance,0.2
;   extruderUseWipe,0
;   extruderWipeDistance,5
;   primaryExtruder,0
;   layerHeight,0.2
;   topSolidLayers,3
;   bottomSolidLayers,3
;   perimeterOutlines,3
;   printPerimetersInsideOut,1
;   startPointOption,2
;   startPointOriginX,0
;   startPointOriginY,0
;   sequentialIslands,0
;   spiralVaseMode,0
;   firstLayerHeightPercentage,90
;   firstLayerWidthPercentage,100
;   firstLayerUnderspeed,0.5
;   useRaft,0
;   raftExtruder,0
;   raftTopLayers,3
;   raftBaseLayers,2
;   raftOffset,3
;   raftSeparationDistance,0.14
;   raftTopInfill,100
;   aboveRaftSpeedMultiplier,0.3
;   useSkirt,1
;   skirtExtruder,0
;   skirtLayers,1
;   skirtOutlines,2
;   skirtOffset,5
;   usePrimePillar,0
;   primePillarExtruder,999
;   primePillarWidth,12
;   primePillarLocation,7
;   primePillarSpeedMultiplier,1
;   useOozeShield,0
;   oozeShieldExtruder,999
;   oozeShieldOffset,2
;   oozeShieldOutlines,1
;   oozeShieldSidewallShape,1
;   oozeShieldSidewallAngle,30
;   oozeShieldSpeedMultiplier,1
;   infillExtruder,0
;   internalInfillPattern,Rectilinear
;   externalInfillPattern,Rectilinear
;   infillPercentage,15
;   outlineOverlapPercentage,25
;   infillExtrusionWidthPercentage,125
;   minInfillLength,5
;   infillLayerInterval,1
;   internalInfillAngles,45,-45
;   overlapInternalInfillAngles,0
;   externalInfillAngles,45,-45
;   generateSupport,1
;   supportExtruder,0
;   supportInfillPercentage,30
;   supportExtraInflation,0
;   supportBaseLayers,0
;   denseSupportExtruder,0
;   denseSupportLayers,0
;   denseSupportInfillPercentage,70
;   supportLayerInterval,1
;   supportHorizontalPartOffset,0.3
;   supportUpperSeparationLayers,1
;   supportLowerSeparationLayers,1
;   supportType,0
;   supportGridSpacing,2
;   maxOverhangAngle,45
;   supportAngles,0
;   temperatureName,Primary Extruder,Heated Bed
;   temperatureNumber,0,0
;   temperatureSetpointCount,1,1
;   temperatureSetpointLayers,1,1
;   temperatureSetpointTemperatures,210,60
;   temperatureStabilizeAtStartup,1,1
;   temperatureHeatedBed,0,1
;   fanLayers,1,2,3
;   fanSpeeds,0,20,60
;   blipFanToFullPower,0
;   adjustSpeedForCooling,1
;   minSpeedLayerTime,15
;   minCoolingSpeedSlowdown,20
;   increaseFanForCooling,0
;   minFanLayerTime,45
;   maxCoolingFanSpeed,100
;   increaseFanForBridging,0
;   bridgingFanSpeed,100
;   use5D,1
;   relativeEdistances,0
;   allowEaxisZeroing,1
;   independentExtruderAxes,0
;   includeM10123,0
;   stickySupport,1
;   applyToolheadOffsets,0
;   gcodeXoffset,0
;   gcodeYoffset,0
;   gcodeZoffset,0
;   overrideMachineDefinition,1
;   machineTypeOverride,0
;   strokeXoverride,195
;   strokeYoverride,150
;   strokeZoverride,150
;   originOffsetXoverride,0
;   originOffsetYoverride,0
;   originOffsetZoverride,0
;   homeXdirOverride,-1
;   homeYdirOverride,-1
;   homeZdirOverride,-1
;   flipXoverride,1
;   flipYoverride,-1
;   flipZoverride,1
;   toolheadOffsets,0,0|0,0|0,0|0,0|0,0|0,0
;   overrideFirmwareConfiguration,1
;   firmwareTypeOverride,RepRap (Marlin/Repetier/Sprinter)
;   GPXconfigOverride,r2
;   baudRateOverride,115200
;   overridePrinterModels,1
;   printerModelsOverride
;   startingGcode,G28 ; home all axes
;   layerChangeGcode,
;   retractionGcode,
;   toolChangeGcode,
;   endingGcode,G28 X0 ; home X-axis,M104 S0 ; turn off extruder,M140 S0 ; turn off bed,M84 ; disable motors
;   exportFileFormat,gcode
;   celebration,0
;   celebrationSong,Random Song
;   postProcessing,
;   defaultSpeed,3600
;   outlineUnderspeed,0.5
;   solidInfillUnderspeed,0.8
;   supportUnderspeed,0.8
;   rapidXYspeed,3600
;   rapidZspeed,1002
;   minBridgingArea,50
;   bridgingExtraInflation,0
;   bridgingExtrusionMultiplier,1
;   bridgingSpeedMultiplier,1
;   useFixedBridgingAngle,0
;   fixedBridgingAngle,0
;   applyBridgingToPerimeters,0
;   filamentDiameters,1.75|1.75|1.75|1.75|1.75|1.75
;   filamentPricesPerKg,46|46|46|46|46|46
;   filamentDensities,1.25|1.25|1.25|1.25|1.25|1.25
;   useMinPrintHeight,0
;   minPrintHeight,0
;   useMaxPrintHeight,0
;   maxPrintHeight,0
;   useDiaphragm,0
;   diaphragmLayerInterval,20
;   robustSlicing,1
;   mergeAllIntoSolid,0
;   onlyRetractWhenCrossingOutline,0
;   retractBetweenLayers,1
;   useRetractionMinTravel,0
;   retractionMinTravel,3
;   retractWhileWiping,0
;   onlyWipeOutlines,1
;   avoidCrossingOutline,1
;   maxMovementDetourFactor,3
;   toolChangeRetractionDistance,12
;   toolChangeExtraRestartDistance,-0.5
;   toolChangeRetractionSpeed,600
;   externalThinWallType,0
;   internalThinWallType,2
;   thinWallAllowedOverlapPercentage,10
;   singleExtrusionMinLength,1
;   singleExtrusionMinPrintingWidthPercentage,50
;   singleExtrusionMaxPrintingWidthPercentage,200
;   singleExtrusionEndpointExtension,0.2
;   horizontalSizeCompensation,0
G90
M82
M106 S0
M140 S60
M190 S60
M104 S210 T0
M109 S210 T0
G28 ; home all axes
; process No Support
; layer 1, Z = 0.180
T0
G92 E0.0000
G1 E-0.5000 F1800
; feature skirt
; tool H0.180 W0.400
G1 Z0.180 F1002
G1 X42.180 Y19.066 F3600
G1 E0.0000 F1800
G92 E0.0000
G1 X47.460 Y13.786 E0.2124 F1800
G1 X56.540 Y13.786 E0.4705
G1 X57.289 Y14.535 E0.5007
G1 X120.711 Y14.535 E2.3042
G1 X121.460 Y13.786 E2.3344
G1 X130.540 Y13.786 E2.5926
G1 X133.126 Y16.372 E2.6966
G1 X133.231 Y16.255 E2.7010
G1 X133.667 Y15.862 E2.7177
G1 X135.157 Y14.779 E2.7701
G1 X135.665 Y14.486 E2.7868
G1 X137.348 Y13.737 E2.8392
G1 X137.906 Y13.556 E2.8558
G1 X139.707 Y13.173 E2.9082
G1 X140.290 Y13.112 E2.9249
G1 X142.132 Y13.112 E2.9773
G1 X142.715 Y13.173 E2.9940
G1 X144.516 Y13.556 E3.0463
G1 X145.074 Y13.737 E3.0630
G1 X146.757 Y14.486 E3.1154
G1 X147.265 Y14.779 E3.1321
G1 X148.755 Y15.862 E3.1844
G1 X149.191 Y16.255 E3.2011
G1 X150.423 Y17.623 E3.2535
G1 X150.768 Y18.098 E3.2702
G1 X151.689 Y19.692 E3.3225
G1 X151.928 Y20.229 E3.3392
G1 X152.496 Y21.980 E3.3916
G1 X152.619 Y22.554 E3.4083
G1 X152.811 Y24.385 E3.4606
G1 X152.811 Y24.972 E3.4773
G1 X152.619 Y26.803 E3.5297
G1 X152.496 Y27.378 E3.5464
G1 X151.928 Y29.129 E3.5987
G1 X151.689 Y29.665 E3.6154
G1 X150.768 Y31.260 E3.6678
G1 X150.423 Y31.734 E3.6845
G1 X149.191 Y33.103 E3.7369
G1 X148.755 Y33.496 E3.7535
G1 X147.265 Y34.578 E3.8059
G1 X146.757 Y34.871 E3.8226
G1 X145.074 Y35.620 E3.8750
G1 X144.516 Y35.802 E3.8917
G1 X142.715 Y36.184 E3.9440
G1 X142.132 Y36.246 E3.9607
G1 X140.290 Y36.246 E4.0131
G1 X139.707 Y36.184 E4.0298
G1 X137.906 Y35.802 E4.0821
G1 X137.348 Y35.620 E4.0988
G1 X135.665 Y34.871 E4.1512
G1 X135.157 Y34.578 E4.1679
G1 X134.407 Y34.033 E4.1942
G1 X134.407 Y63.650 E5.0365
G1 X135.820 Y65.045 E5.0930
G1 X135.820 Y72.145 E5.2949
G1 X132.693 Y75.273 E5.4206
G1 X133.750 Y76.586 E5.4686
G1 X134.387 Y78.393 E5.5231
G1 X134.387 Y129.209 E6.9681
G1 X134.384 Y129.323 E6.9714
G1 X134.351 Y130.146 E6.9948
G1 X134.141 Y131.103 E7.0227
G1 X133.711 Y132.150 E7.0548
G1 X133.257 Y132.897 E7.0797
G1 X132.545 Y133.739 E7.1111
G1 X131.656 Y134.440 E7.1433
G1 X130.232 Y135.156 E7.1886
G1 X128.956 Y135.458 E7.2259
G1 X49.571 Y135.458 E9.4834
G1 X48.975 Y135.394 E9.5004
G1 X47.535 Y135.082 E9.5423
G1 X46.167 Y134.354 E9.5864
G1 X44.972 Y133.210 E9.6334
G1 X44.238 Y132.045 E9.6726
G1 X43.755 Y130.574 E9.7166
G1 X43.614 Y129.694 E9.7420
G1 X43.614 Y78.796 E11.1894
G1 X43.913 Y77.526 E11.2265
G1 X44.748 Y75.858 E11.2795
G1 X45.303 Y75.268 E11.3025
G1 X42.180 Y72.145 E11.4281
G1 X42.180 Y65.066 E11.6295
G1 X43.601 Y63.645 E11.6866
G1 X43.601 Y27.566 E12.7126
G1 X42.180 Y26.145 E12.7697
G1 X42.180 Y19.066 E12.9711
G92 E0.0000
G1 E-0.5000 F1800
G1 X42.580 Y19.232 F3600
G1 E0.0000 F1800
G92 E0.0000
G1 X47.626 Y14.186 E0.2029 F1800
G1 X56.374 Y14.186 E0.4517
G1 X57.123 Y14.935 E0.4818
G1 X120.877 Y14.935 E2.2948
G1 X121.626 Y14.186 E2.3250
G1 X130.374 Y14.186 E2.5737
G1 X133.141 Y16.953 E2.6850
G1 X133.514 Y16.538 E2.7009
G1 X133.919 Y16.173 E2.7164
G1 X135.375 Y15.115 E2.7675
G1 X135.847 Y14.843 E2.7830
G1 X137.491 Y14.111 E2.8342
G1 X138.009 Y13.943 E2.8497
G1 X139.769 Y13.569 E2.9009
G1 X140.311 Y13.512 E2.9164
G1 X142.111 Y13.512 E2.9675
G1 X142.653 Y13.569 E2.9830
G1 X144.413 Y13.943 E3.0342
G1 X144.931 Y14.111 E3.0497
G1 X146.575 Y14.843 E3.1009
G1 X147.047 Y15.115 E3.1164
G1 X148.503 Y16.173 E3.1675
G1 X148.908 Y16.538 E3.1830
G1 X150.112 Y17.875 E3.2342
G1 X150.432 Y18.316 E3.2497
G1 X151.332 Y19.874 E3.3009
G1 X151.554 Y20.372 E3.3164
G1 X152.110 Y22.084 E3.3676
G1 X152.223 Y22.617 E3.3831
G1 X152.411 Y24.406 E3.4342
G1 X152.411 Y24.951 E3.4497
G1 X152.223 Y26.741 E3.5009
G1 X152.110 Y27.274 E3.5164
G1 X151.554 Y28.985 E3.5676
G1 X151.332 Y29.483 E3.5831
G1 X150.432 Y31.041 E3.6342
G1 X150.112 Y31.482 E3.6497
G1 X148.908 Y32.820 E3.7009
G1 X148.503 Y33.184 E3.7164
G1 X147.047 Y34.242 E3.7676
G1 X146.575 Y34.515 E3.7831
G1 X144.931 Y35.246 E3.8342
G1 X144.413 Y35.415 E3.8497
G1 X142.653 Y35.789 E3.9009
G1 X142.111 Y35.846 E3.9164
G1 X140.311 Y35.846 E3.9676
G1 X139.769 Y35.789 E3.9831
G1 X138.009 Y35.415 E4.0342
G1 X137.491 Y35.246 E4.0497
G1 X135.847 Y34.515 E4.1009
G1 X135.375 Y34.242 E4.1164
G1 X134.007 Y33.248 E4.1645
G1 X134.007 Y63.817 E5.0338
G1 X135.420 Y65.212 E5.0903
G1 X135.420 Y71.980 E5.2828
G1 X132.156 Y75.244 E5.4140
G1 X133.395 Y76.784 E5.4702
G1 X133.987 Y78.462 E5.5208
G1 X133.987 Y129.204 E6.9638
G1 X133.984 Y129.311 E6.9669
G1 X133.952 Y130.094 E6.9892
G1 X133.758 Y130.984 E7.0150
G1 X133.353 Y131.969 E7.0453
G1 X132.931 Y132.662 E7.0684
G1 X132.266 Y133.450 E7.0977
G1 X131.440 Y134.100 E7.1276
G1 X130.094 Y134.777 E7.1705
G1 X128.910 Y135.058 E7.2051
G1 X49.593 Y135.058 E9.4607
G1 X49.039 Y134.999 E9.4765
G1 X47.674 Y134.702 E9.5162
G1 X46.404 Y134.027 E9.5571
G1 X45.285 Y132.955 E9.6012
G1 X44.603 Y131.873 E9.6376
G1 X44.144 Y130.479 E9.6793
G1 X44.014 Y129.662 E9.7028
G1 X44.014 Y78.842 E11.1480
G1 X44.292 Y77.664 E11.1825
G1 X45.079 Y76.090 E11.2325
G1 X45.860 Y75.260 E11.2649
G1 X42.580 Y71.980 E11.3968
G1 X42.580 Y65.232 E11.5887
G1 X44.001 Y63.811 E11.6459
G1 X44.001 Y27.401 E12.6813
G1 X42.580 Y25.980 E12.7384
G1 X42.580 Y19.232 E12.9303
G92 E0.0000
G1 E-0.5000 F1800
; feature outer perimeter
G1 X49.401 Y20.610 F3600
G1 E0.0000 F1800
G92 E0.0000
G1 X49.608 Y20.362 E0.0092 F900
G1 X49.701 Y20.354 E0.0118
G1 X49.684 Y20.366 E0.0124
G1 X49.401 Y20.680 E0.0244
G1 X49.401 Y20.610 E0.0264
G92 E0.0000
G1 E-0.5000 F1800
; feature inner perimeter
G1 X49.409 Y20.671 F3600
G1 X49.401 Y20.680
G1 X49.401 Y24.811
G1 X49.683 Y25.125
G1 X50.065 Y25.402
G1 X50.201 Y26.383
G1 E0.0000 F1800
G92 E0.0000
G1 X50.587 Y26.555 E0.0120 F1350
G1 X51.406 Y26.729 E0.0358
G1 X52.244 Y26.729 E0.0597
G1 X53.063 Y26.555 E0.0835
G1 X53.828 Y26.215 E0.1073
G1 X54.505 Y25.722 E0.1311
G1 X55.066 Y25.100 E0.1549
G1 X55.484 Y24.375 E0.1787
G1 X55.743 Y23.579 E0.2025
G1 X55.831 Y22.746 E0.2263
G1 X55.743 Y21.913 E0.2502
G1 X55.490 Y21.135 E0.2734
G1 X122.510 Y21.135 E2.1793
G1 X122.257 Y21.913 E2.2026
G1 X122.169 Y22.746 E2.2264
G1 X122.257 Y23.579 E2.2502
G1 X122.516 Y24.375 E2.2740
G1 X122.934 Y25.100 E2.2978
G1 X123.495 Y25.722 E2.3216
G1 X124.172 Y26.215 E2.3454
G1 X124.937 Y26.555 E2.3692
G1 X125.756 Y26.729 E2.3931
G1 X126.594 Y26.729 E2.4169
G1 X127.413 Y26.555 E2.4407
G1 X127.807 Y26.380 E2.4529
G1 X127.807 Y64.832 E3.5464
G1 X127.413 Y64.656 E3.5587
G1 X126.594 Y64.482 E3.5825
G1 X125.756 Y64.482 E3.6063
G1 X124.937 Y64.656 E3.6301
G1 X124.172 Y64.997 E3.6539
G1 X123.495 Y65.489 E3.6777
G1 X122.934 Y66.111 E3.7015
G1 X122.516 Y66.837 E3.7254
G1 X122.257 Y67.633 E3.7492
G1 X122.169 Y68.466 E3.7730
G1 X122.257 Y69.299 E3.7968
G1 X122.513 Y70.087 E3.8204
G1 X55.487 Y70.087 E5.7264
G1 X55.743 Y69.299 E5.7500
G1 X55.831 Y68.466 E5.7738
G1 X55.743 Y67.633 E5.7976
G1 X55.484 Y66.837 E5.8214
G1 X55.066 Y66.111 E5.8452
G1 X54.505 Y65.489 E5.8691
G1 X53.828 Y64.997 E5.8929
G1 X53.063 Y64.656 E5.9167
G1 X52.244 Y64.482 E5.9405
G1 X51.406 Y64.482 E5.9643
G1 X50.587 Y64.656 E5.9881
G1 X50.201 Y64.828 E6.0001
G1 X50.201 Y26.383 E7.0934
G92 E0.0000
G1 E-0.5000 F1800
G1 X50.711 Y26.173 F3600
G1 E0.0000 F1800
G92 E0.0000
G1 X51.448 Y26.329 E0.0214 F1350
G1 X52.202 Y26.329 E0.0428
G1 X52.939 Y26.173 E0.0643
G1 X53.627 Y25.866 E0.0857
G1 X54.236 Y25.424 E0.1071
G1 X54.740 Y24.864 E0.1285
G1 X55.117 Y24.211 E0.1500
G1 X55.350 Y23.495 E0.1714
G1 X55.428 Y22.746 E0.1928
G1 X55.350 Y21.997 E0.2142
G1 X55.117 Y21.280 E0.2356
G1 X54.802 Y20.735 E0.2535
G1 X123.198 Y20.735 E2.1985
G1 X122.883 Y21.280 E2.2165
G1 X122.650 Y21.997 E2.2379
G1 X122.572 Y22.746 E2.2593
G1 X122.650 Y23.495 E2.2807
G1 X122.883 Y24.211 E2.3021
G1 X123.260 Y24.864 E2.3236
G1 X123.764 Y25.424 E2.3450
G1 X124.373 Y25.866 E2.3664
G1 X125.061 Y26.173 E2.3878
G1 X125.798 Y26.329 E2.4092
G1 X126.552 Y26.329 E2.4307
G1 X127.289 Y26.173 E2.4521
G1 X128.207 Y25.764 E2.4807
G1 X128.207 Y65.448 E3.6092
G1 X127.289 Y65.039 E3.6377
G1 X126.552 Y64.882 E3.6592
G1 X125.798 Y64.882 E3.6806
G1 X125.061 Y65.039 E3.7020
G1 X124.373 Y65.345 E3.7234
G1 X123.764 Y65.788 E3.7449
G1 X123.260 Y66.348 E3.7663
G1 X122.883 Y67.000 E3.7877
G1 X122.650 Y67.717 E3.8091
G1 X122.572 Y68.466 E3.8305
G1 X122.650 Y69.215 E3.8520
G1 X122.883 Y69.931 E3.8734
G1 X123.204 Y70.487 E3.8916
G1 X54.796 Y70.487 E5.8370
G1 X55.117 Y69.931 E5.8552
G1 X55.350 Y69.215 E5.8766
G1 X55.428 Y68.466 E5.8980
G1 X55.350 Y67.717 E5.9195
G1 X55.117 Y67.000 E5.9409
G1 X54.740 Y66.348 E5.9623
G1 X54.236 Y65.788 E5.9837
G1 X53.627 Y65.345 E6.0052
G1 X52.939 Y65.039 E6.0266
G1 X52.202 Y64.882 E6.0480
G1 X51.448 Y64.882 E6.0694
G1 X50.711 Y65.039 E6.0908
G1 X49.801 Y65.444 E6.1192
G1 X49.801 Y25.767 E7.2475
G1 X50.711 Y26.173 E7.2758
G92 E0.0000
G1 E-0.5000 F1800
; feature outer perimeter
G1 X50.836 Y25.790 F3600
G1 E0.0000 F1800
G92 E0.0000
G1 X51.490 Y25.929 E0.0190 F900
G1 X52.160 Y25.929 E0.0381
G1 X52.814 Y25.790 E0.0571
G1 X53.426 Y25.518 E0.0761
G1 X53.967 Y25.125 E0.0952
G1 X54.415 Y24.627 E0.1142
G1 X54.749 Y24.048 E0.1332
G1 X54.956 Y23.411 E0.1522
G1 X55.026 Y22.746 E0.1713
G1 X54.956 Y22.080 E0.1903
G1 X54.749 Y21.444 E0.2093
G1 X54.415 Y20.864 E0.2284
G1 X53.966 Y20.366 E0.2474
G1 X53.922 Y20.335 E0.2490
G1 X124.078 Y20.335 E2.2440
G1 X124.034 Y20.366 E2.2455
G1 X123.585 Y20.864 E2.2646
G1 X123.251 Y21.444 E2.2836
G1 X123.044 Y22.080 E2.3027
G1 X122.974 Y22.746 E2.3217
G1 X123.044 Y23.411 E2.3407
G1 X123.251 Y24.048 E2.3597
G1 X123.585 Y24.627 E2.3788
G1 X124.033 Y25.125 E2.3978
G1 X124.574 Y25.518 E2.4168
G1 X125.186 Y25.790 E2.4359
G1 X125.840 Y25.929 E2.4549
G1 X126.510 Y25.929 E2.4739
G1 X127.164 Y25.790 E2.4930
G1 X127.776 Y25.518 E2.5120
G1 X128.317 Y25.125 E2.5310
G1 X128.607 Y24.803 E2.5433
G1 X128.607 Y66.408 E3.7265
G1 X128.317 Y66.087 E3.7388
G1 X127.776 Y65.694 E3.7578
G1 X127.164 Y65.421 E3.7768
G1 X126.510 Y65.282 E3.7959
G1 X125.840 Y65.282 E3.8149
G1 X125.186 Y65.421 E3.8339
G1 X124.574 Y65.694 E3.8530
G1 X124.033 Y66.087 E3.8720
G1 X123.585 Y66.584 E3.8910
G1 X123.251 Y67.164 E3.9101
G1 X123.044 Y67.800 E3.9291
G1 X122.974 Y68.466 E3.9481
G1 X123.044 Y69.131 E3.9671
G1 X123.251 Y69.768 E3.9862
G1 X123.585 Y70.347 E4.0052
G1 X124.033 Y70.845 E4.0242
G1 X124.091 Y70.887 E4.0263
G1 X53.909 Y70.887 E6.0221
G1 X53.967 Y70.845 E6.0241
G1 X54.415 Y70.347 E6.0432
G1 X54.749 Y69.768 E6.0622
G1 X54.956 Y69.131 E6.0812
G1 X55.026 Y68.466 E6.1002
G1 X54.956 Y67.800 E6.1193
G1 X54.749 Y67.164 E6.1383
G1 X54.415 Y66.584 E6.1573
G1 X53.967 Y66.087 E6.1764
G1 X53.426 Y65.694 E6.1954
G1 X52.814 Y65.421 E6.2144
G1 X52.160 Y65.282 E6.2335
