; G-Code generated by Simplify3D(R) Version 4.1.2
; Feb 19, 2020 at 1:21:27 PM
; Settings Summary
;   processName,Process1
;   applyToModels,db-19(2),db-19(3),db-19(4),db-19(5),db-19(4)(2)
;   profileName,Wanhao Duplicator i3(2) (modified)
;   profileVersion,2019-12-15 13:33:55
;   baseProfile,
;   printMaterial,
;   printQuality,
;   printExtruders,
;   extruderName,Primary Extruder
;   extruderToolheadNumber,0
;   extruderDiameter,0.4
;   extruderAutoWidth,0
;   extruderWidth,0.4
;   extrusionMultiplier,0.95
;   extruderUseRetract,1
;   extruderRetractionDistance,0.5
;   extruderExtraRestartDistance,0
;   extruderRetractionZLift,0
;   extruderRetractionSpeed,1800
;   extruderUseCoasting,0
;   extruderCoastingDistance,0.2
;   extruderUseWipe,0
;   extruderWipeDistance,5
;   primaryExtruder,0
;   layerHeight,0.2
;   topSolidLayers,3
;   bottomSolidLayers,3
;   perimeterOutlines,3
;   printPerimetersInsideOut,1
;   startPointOption,2
;   startPointOriginX,0
;   startPointOriginY,0
;   sequentialIslands,0
;   spiralVaseMode,0
;   firstLayerHeightPercentage,90
;   firstLayerWidthPercentage,100
;   firstLayerUnderspeed,0.5
;   useRaft,0
;   raftExtruder,0
;   raftTopLayers,3
;   raftBaseLayers,2
;   raftOffset,3
;   raftSeparationDistance,0.14
;   raftTopInfill,100
;   aboveRaftSpeedMultiplier,0.3
;   useSkirt,1
;   skirtExtruder,0
;   skirtLayers,1
;   skirtOutlines,2
;   skirtOffset,5
;   usePrimePillar,0
;   primePillarExtruder,999
;   primePillarWidth,12
;   primePillarLocation,7
;   primePillarSpeedMultiplier,1
;   useOozeShield,0
;   oozeShieldExtruder,999
;   oozeShieldOffset,2
;   oozeShieldOutlines,1
;   oozeShieldSidewallShape,1
;   oozeShieldSidewallAngle,30
;   oozeShieldSpeedMultiplier,1
;   infillExtruder,0
;   internalInfillPattern,Rectilinear
;   externalInfillPattern,Rectilinear
;   infillPercentage,15
;   outlineOverlapPercentage,25
;   infillExtrusionWidthPercentage,125
;   minInfillLength,5
;   infillLayerInterval,1
;   internalInfillAngles,45,-45
;   overlapInternalInfillAngles,0
;   externalInfillAngles,45,-45
;   generateSupport,1
;   supportExtruder,0
;   supportInfillPercentage,30
;   supportExtraInflation,0
;   supportBaseLayers,0
;   denseSupportExtruder,0
;   denseSupportLayers,0
;   denseSupportInfillPercentage,70
;   supportLayerInterval,1
;   supportHorizontalPartOffset,0.3
;   supportUpperSeparationLayers,1
;   supportLowerSeparationLayers,1
;   supportType,0
;   supportGridSpacing,4
;   maxOverhangAngle,45
;   supportAngles,0
;   temperatureName,Primary Extruder,Heated Bed
;   temperatureNumber,0,0
;   temperatureSetpointCount,1,1
;   temperatureSetpointLayers,1,1
;   temperatureSetpointTemperatures,210,60
;   temperatureStabilizeAtStartup,1,1
;   temperatureHeatedBed,0,1
;   fanLayers,1,2,3
;   fanSpeeds,0,20,60
;   blipFanToFullPower,0
;   adjustSpeedForCooling,1
;   minSpeedLayerTime,15
;   minCoolingSpeedSlowdown,20
;   increaseFanForCooling,0
;   minFanLayerTime,45
;   maxCoolingFanSpeed,100
;   increaseFanForBridging,0
;   bridgingFanSpeed,100
;   use5D,1
;   relativeEdistances,0
;   allowEaxisZeroing,1
;   independentExtruderAxes,0
;   includeM10123,0
;   stickySupport,1
;   applyToolheadOffsets,0
;   gcodeXoffset,0
;   gcodeYoffset,0
;   gcodeZoffset,0
;   overrideMachineDefinition,1
;   machineTypeOverride,0
;   strokeXoverride,200
;   strokeYoverride,200
;   strokeZoverride,180
;   originOffsetXoverride,0
;   originOffsetYoverride,0
;   originOffsetZoverride,0
;   homeXdirOverride,-1
;   homeYdirOverride,-1
;   homeZdirOverride,-1
;   flipXoverride,1
;   flipYoverride,-1
;   flipZoverride,1
;   toolheadOffsets,0,0|0,0|0,0|0,0|0,0|0,0
;   overrideFirmwareConfiguration,1
;   firmwareTypeOverride,RepRap (Marlin/Repetier/Sprinter)
;   GPXconfigOverride,r2
;   baudRateOverride,115200
;   overridePrinterModels,1
;   printerModelsOverride
;   startingGcode,G28 ; home all axes
;   layerChangeGcode,
;   retractionGcode,
;   toolChangeGcode,
;   endingGcode,G28 X0 ; home X-axis,M104 S0 ; turn off extruder,M140 S0 ; turn off bed,M84 ; disable motors
;   exportFileFormat,gcode
;   celebration,0
;   celebrationSong,Random Song
;   postProcessing,
;   defaultSpeed,3600
;   outlineUnderspeed,0.5
;   solidInfillUnderspeed,0.8
;   supportUnderspeed,0.8
;   rapidXYspeed,3600
;   rapidZspeed,1002
;   minBridgingArea,50
;   bridgingExtraInflation,0
;   bridgingExtrusionMultiplier,1
;   bridgingSpeedMultiplier,1
;   useFixedBridgingAngle,0
;   fixedBridgingAngle,0
;   applyBridgingToPerimeters,0
;   filamentDiameters,1.75|1.75|1.75|1.75|1.75|1.75
;   filamentPricesPerKg,46|46|46|46|46|46
;   filamentDensities,1.25|1.25|1.25|1.25|1.25|1.25
;   useMinPrintHeight,0
;   minPrintHeight,0
;   useMaxPrintHeight,0
;   maxPrintHeight,0
;   useDiaphragm,0
;   diaphragmLayerInterval,20
;   robustSlicing,1
;   mergeAllIntoSolid,0
;   onlyRetractWhenCrossingOutline,0
;   retractBetweenLayers,1
;   useRetractionMinTravel,0
;   retractionMinTravel,3
;   retractWhileWiping,0
;   onlyWipeOutlines,1
;   avoidCrossingOutline,1
;   maxMovementDetourFactor,3
;   toolChangeRetractionDistance,12
;   toolChangeExtraRestartDistance,-0.5
;   toolChangeRetractionSpeed,600
;   externalThinWallType,0
;   internalThinWallType,1
;   thinWallAllowedOverlapPercentage,10
;   singleExtrusionMinLength,1
;   singleExtrusionMinPrintingWidthPercentage,50
;   singleExtrusionMaxPrintingWidthPercentage,200
;   singleExtrusionEndpointExtension,0.2
;   horizontalSizeCompensation,0
G90
M82
M106 S0
M140 S60
M190 S60
M104 S210 T0
M109 S210 T0
G28 ; home all axes
; process Process1
; layer 1, Z = 0.180
T0
G92 E0.0000
G1 E-0.5000 F1800
; feature skirt
; tool H0.180 W0.400
G1 Z0.180 F1002
G1 X15.603 Y31.816 F3600
G1 E0.0000 F1800
G92 E0.0000
G1 X16.535 Y31.408 E0.0289 F1800
G1 X17.077 Y31.233 E0.0451
G1 X18.040 Y31.029 E0.0731
G1 X18.624 Y30.967 E0.0898
G1 X60.369 Y30.967 E1.2769
G1 X60.953 Y31.029 E1.2936
G1 X61.936 Y31.238 E1.3222
G1 X62.494 Y31.419 E1.3389
G1 X63.412 Y31.828 E1.3675
G1 X63.920 Y32.121 E1.3842
G1 X64.734 Y32.712 E1.4127
G1 X65.170 Y33.105 E1.4295
G1 X65.843 Y33.852 E1.4580
G1 X66.187 Y34.326 E1.4747
G1 X66.690 Y35.197 E1.5033
G1 X66.929 Y35.733 E1.5200
G1 X67.187 Y36.528 E1.5437
G1 X67.195 Y28.385 E1.7753
G1 X67.498 Y27.113 E1.8125
G1 X68.322 Y25.473 E1.8647
G1 X69.326 Y24.357 E1.9074
G1 X70.766 Y23.430 E1.9561
G1 X72.313 Y22.975 E2.0019
G1 X118.251 Y22.975 E3.3083
G1 X119.798 Y23.430 E3.3541
G1 X121.255 Y24.368 E3.4034
G1 X122.279 Y25.523 E3.4473
G1 X123.093 Y27.205 E3.5004
G1 X123.377 Y28.441 E3.5365
G1 X123.377 Y37.209 E3.7859
G1 X123.093 Y38.446 E3.8219
G1 X122.279 Y40.126 E3.8750
G1 X121.256 Y41.281 E3.9189
G1 X119.705 Y42.280 E3.9714
G1 X118.158 Y42.735 E4.0172
G1 X115.920 Y42.735 E4.0809
G1 X115.920 Y48.709 E4.2508
G1 X115.636 Y49.946 E4.2868
G1 X114.822 Y51.627 E4.3400
G1 X114.513 Y51.975 E4.3532
G1 X118.251 Y51.975 E4.4595
G1 X119.798 Y52.430 E4.5053
G1 X121.255 Y53.368 E4.5546
G1 X122.279 Y54.524 E4.5985
G1 X123.093 Y56.205 E4.6516
G1 X123.377 Y57.441 E4.6877
G1 X123.377 Y66.209 E4.9370
G1 X123.093 Y67.446 E4.9731
G1 X122.279 Y69.126 E5.0262
G1 X121.256 Y70.281 E5.0701
G1 X119.706 Y71.280 E5.1225
G1 X118.158 Y71.735 E5.1684
G1 X115.920 Y71.735 E5.2321
G1 X115.920 Y77.709 E5.4020
G1 X115.636 Y78.946 E5.4380
G1 X114.822 Y80.627 E5.4911
G1 X113.799 Y81.782 E5.5350
G1 X112.248 Y82.780 E5.5875
G1 X110.701 Y83.235 E5.6333
G1 X103.102 Y83.235 E5.8494
G1 X103.102 Y84.115 E5.8744
G1 X99.821 Y87.395 E6.0064
G1 X90.742 Y87.395 E6.2646
G1 X87.462 Y84.115 E6.3965
G1 X87.462 Y83.235 E6.4215
G1 X79.862 Y83.235 E6.6376
G1 X78.315 Y82.780 E6.6835
G1 X76.765 Y81.782 E6.7359
G1 X75.742 Y80.627 E6.7798
G1 X74.927 Y78.946 E6.8329
G1 X74.643 Y77.709 E6.8690
G1 X74.643 Y71.735 E7.0389
G1 X72.406 Y71.735 E7.1025
G1 X70.858 Y71.280 E7.1484
G1 X69.307 Y70.281 E7.2008
G1 X68.285 Y69.126 E7.2447
G1 X67.470 Y67.444 E7.2979
G1 X67.246 Y66.468 E7.3263
G1 X67.239 Y66.502 E7.3273
G1 X66.929 Y67.458 E7.3559
G1 X66.690 Y67.994 E7.3726
G1 X66.187 Y68.864 E7.4012
G1 X65.843 Y69.339 E7.4178
G1 X65.170 Y70.085 E7.4464
G1 X64.734 Y70.479 E7.4631
G1 X63.920 Y71.070 E7.4917
G1 X63.412 Y71.363 E7.5084
G1 X62.494 Y71.772 E7.5370
G1 X61.936 Y71.953 E7.5537
G1 X60.953 Y72.162 E7.5823
G1 X60.369 Y72.223 E7.5989
G1 X18.624 Y72.223 E8.7861
G1 X18.040 Y72.162 E8.8028
G1 X17.057 Y71.953 E8.8313
G1 X16.499 Y71.772 E8.8480
G1 X15.581 Y71.363 E8.8766
G1 X15.072 Y71.070 E8.8933
G1 X14.259 Y70.479 E8.9219
G1 X13.822 Y70.086 E8.9386
G1 X13.150 Y69.339 E8.9672
G1 X12.805 Y68.864 E8.9839
G1 X12.303 Y67.994 E9.0124
G1 X12.064 Y67.458 E9.0291
G1 X11.753 Y66.502 E9.0577
G1 X11.631 Y65.927 E9.0744
G1 X11.542 Y65.074 E9.0988
G1 X11.526 Y64.781 E9.1072
G1 X11.526 Y55.938 E9.3586
G1 X11.542 Y55.645 E9.3670
G1 X11.631 Y54.791 E9.3914
G1 X11.753 Y54.217 E9.4081
G1 X12.064 Y53.261 E9.4367
G1 X12.303 Y52.725 E9.4534
G1 X12.805 Y51.855 E9.4819
G1 X12.994 Y51.595 E9.4910
G1 X12.805 Y51.336 E9.5002
G1 X12.303 Y50.466 E9.5287
G1 X12.064 Y49.930 E9.5454
G1 X11.753 Y48.974 E9.5740
G1 X11.631 Y48.399 E9.5907
G1 X11.542 Y47.546 E9.6151
G1 X11.526 Y47.253 E9.6235
G1 X11.526 Y38.410 E9.8749
G1 X11.542 Y38.117 E9.8833
G1 X11.631 Y37.263 E9.9077
G1 X11.753 Y36.689 E9.9244
G1 X12.064 Y35.733 E9.9530
G1 X12.303 Y35.197 E9.9696
G1 X12.805 Y34.327 E9.9982
G1 X13.150 Y33.852 E10.0149
G1 X13.823 Y33.105 E10.0435
G1 X14.259 Y32.712 E10.0602
G1 X15.079 Y32.116 E10.0890
G1 X15.603 Y31.816 E10.1062
G92 E0.0000
G1 E-0.5000 F1800
G1 X15.783 Y32.173 F3600
G1 E0.0000 F1800
G92 E0.0000
G1 X16.677 Y31.782 E0.0277 F1800
G1 X17.180 Y31.620 E0.0428
G1 X18.102 Y31.424 E0.0696
G1 X18.645 Y31.367 E0.0851
G1 X60.348 Y31.367 E1.2710
G1 X60.890 Y31.424 E1.2865
G1 X61.832 Y31.625 E1.3139
G1 X62.350 Y31.793 E1.3294
G1 X63.230 Y32.184 E1.3568
G1 X63.702 Y32.457 E1.3723
G1 X64.482 Y33.023 E1.3997
G1 X64.887 Y33.388 E1.4152
G1 X65.531 Y34.104 E1.4426
G1 X65.851 Y34.545 E1.4581
G1 X66.333 Y35.379 E1.4855
G1 X66.555 Y35.877 E1.5010
G1 X66.852 Y36.793 E1.5284
G1 X66.966 Y37.326 E1.5439
G1 X67.052 Y38.148 E1.5674
G1 X67.066 Y38.420 E1.5751
G1 X67.066 Y47.242 E1.8260
G1 X67.052 Y47.514 E1.8337
G1 X66.966 Y48.337 E1.8573
G1 X66.852 Y48.870 E1.8728
G1 X66.555 Y49.786 E1.9001
G1 X66.333 Y50.284 E1.9157
G1 X65.851 Y51.118 E1.9430
G1 X65.531 Y51.558 E1.9585
G1 X65.498 Y51.595 E1.9599
G1 X65.531 Y51.632 E1.9613
G1 X65.851 Y52.073 E1.9768
G1 X66.333 Y52.907 E2.0042
G1 X66.555 Y53.405 E2.0197
G1 X66.852 Y54.321 E2.0471
G1 X66.966 Y54.854 E2.0626
G1 X67.052 Y55.676 E2.0861
G1 X67.066 Y55.948 E2.0939
G1 X67.066 Y64.771 E2.3447
G1 X67.052 Y65.042 E2.3525
G1 X66.966 Y65.865 E2.3760
G1 X66.852 Y66.398 E2.3915
G1 X66.555 Y67.314 E2.4189
G1 X66.333 Y67.812 E2.4344
G1 X65.851 Y68.646 E2.4618
G1 X65.531 Y69.086 E2.4773
G1 X64.887 Y69.802 E2.5047
G1 X64.482 Y70.167 E2.5202
G1 X63.702 Y70.734 E2.5476
G1 X63.230 Y71.006 E2.5631
G1 X62.350 Y71.398 E2.5905
G1 X61.832 Y71.566 E2.6059
G1 X60.890 Y71.766 E2.6333
G1 X60.348 Y71.823 E2.6488
G1 X18.645 Y71.823 E3.8348
G1 X18.102 Y71.766 E3.8503
G1 X17.160 Y71.566 E3.8777
G1 X16.642 Y71.398 E3.8932
G1 X15.762 Y71.006 E3.9205
G1 X15.290 Y70.734 E3.9360
G1 X14.511 Y70.167 E3.9634
G1 X14.106 Y69.802 E3.9789
G1 X13.461 Y69.087 E4.0063
G1 X13.141 Y68.646 E4.0218
G1 X12.660 Y67.812 E4.0492
G1 X12.438 Y67.314 E4.0647
G1 X12.140 Y66.398 E4.0921
G1 X12.027 Y65.865 E4.1076
G1 X11.941 Y65.042 E4.1311
G1 X11.926 Y64.770 E4.1389
G1 X11.926 Y55.948 E4.3897
G1 X11.941 Y55.676 E4.3975
G1 X12.027 Y54.854 E4.4210
G1 X12.140 Y54.321 E4.4365
G1 X12.438 Y53.405 E4.4639
G1 X12.660 Y52.907 E4.4794
G1 X13.141 Y52.073 E4.5068
G1 X13.461 Y51.632 E4.5223
G1 X13.494 Y51.595 E4.5237
G1 X13.461 Y51.559 E4.5251
G1 X13.141 Y51.118 E4.5406
G1 X12.660 Y50.284 E4.5680
G1 X12.438 Y49.786 E4.5835
G1 X12.140 Y48.870 E4.6108
G1 X12.027 Y48.337 E4.6264
G1 X11.941 Y47.514 E4.6499
G1 X11.926 Y47.242 E4.6576
G1 X11.926 Y38.420 E4.9085
G1 X11.941 Y38.148 E4.9162
G1 X12.027 Y37.326 E4.9397
G1 X12.140 Y36.793 E4.9553
G1 X12.438 Y35.877 E4.9826
G1 X12.660 Y35.379 E4.9981
G1 X13.141 Y34.545 E5.0255
G1 X13.461 Y34.104 E5.0410
G1 X14.106 Y33.388 E5.0684
G1 X14.511 Y33.023 E5.0839
G1 X15.297 Y32.452 E5.1115
G1 X15.783 Y32.173 E5.1275
G92 E0.0000
G1 E-0.5000 F1800
G1 X67.595 Y28.432 F3600
G1 E0.0000 F1800
G92 E0.0000
G1 X67.876 Y27.251 E0.0345 F1800
G1 X68.655 Y25.701 E0.0838
G1 X69.587 Y24.664 E0.1235
G1 X70.934 Y23.797 E0.1690
G1 X72.370 Y23.375 E0.2116
G1 X118.193 Y23.375 E1.5147
G1 X119.630 Y23.797 E1.5573
G1 X120.992 Y24.675 E1.6034
G1 X121.943 Y25.747 E1.6441
G1 X122.713 Y27.338 E1.6944
G1 X122.977 Y28.486 E1.7279
G1 X122.977 Y37.164 E1.9746
G1 X122.713 Y38.312 E2.0081
G1 X121.943 Y39.903 E2.0584
G1 X120.993 Y40.975 E2.0991
G1 X119.537 Y41.912 E2.1484
G1 X118.100 Y42.335 E2.1910
G1 X115.520 Y42.335 E2.2643
G1 X115.520 Y48.664 E2.4443
G1 X115.257 Y49.812 E2.4778
G1 X114.486 Y51.403 E2.5281
G1 X113.625 Y52.375 E2.5650
G1 X118.193 Y52.375 E2.6949
G1 X119.630 Y52.797 E2.7375
G1 X120.992 Y53.675 E2.7836
G1 X121.943 Y54.748 E2.8244
G1 X122.713 Y56.338 E2.8746
G1 X122.977 Y57.486 E2.9081
G1 X122.977 Y66.164 E3.1549
G1 X122.713 Y67.312 E3.1884
G1 X121.943 Y68.902 E3.2386
G1 X120.993 Y69.975 E3.2794
G1 X119.537 Y70.912 E3.3286
G1 X118.100 Y71.335 E3.3712
G1 X115.520 Y71.335 E3.4446
G1 X115.520 Y77.664 E3.6246
G1 X115.257 Y78.812 E3.6581
G1 X114.486 Y80.403 E3.7083
G1 X113.536 Y81.475 E3.7491
G1 X112.080 Y82.413 E3.7983
G1 X110.643 Y82.835 E3.8409
G1 X102.702 Y82.835 E4.0667
G1 X102.702 Y83.949 E4.0984
G1 X99.656 Y86.995 E4.2209
G1 X90.908 Y86.995 E4.4697
G1 X87.862 Y83.949 E4.5922
G1 X87.862 Y82.835 E4.6239
G1 X79.920 Y82.835 E4.8497
G1 X78.483 Y82.413 E4.8923
G1 X77.027 Y81.475 E4.9415
G1 X76.078 Y80.403 E4.9823
G1 X75.307 Y78.812 E5.0325
G1 X75.043 Y77.664 E5.0660
G1 X75.043 Y71.335 E5.2460
G1 X72.463 Y71.335 E5.3194
G1 X71.026 Y70.912 E5.3620
G1 X69.570 Y69.975 E5.4112
G1 X68.621 Y68.902 E5.4520
G1 X67.850 Y67.311 E5.5023
G1 X67.586 Y66.160 E5.5358
G1 X67.595 Y57.432 E5.7840
G1 X67.876 Y56.251 E5.8186
G1 X68.655 Y54.701 E5.8679
G1 X69.587 Y53.664 E5.9075
G1 X70.934 Y52.797 E5.9531
G1 X72.370 Y52.375 E5.9957
G1 X76.939 Y52.375 E6.1256
G1 X76.078 Y51.403 E6.1625
G1 X75.307 Y49.812 E6.2128
G1 X75.043 Y48.664 E6.2463
G1 X75.043 Y42.335 E6.4262
G1 X72.463 Y42.335 E6.4996
G1 X71.026 Y41.912 E6.5422
G1 X69.571 Y40.975 E6.5915
G1 X68.621 Y39.903 E6.6322
G1 X67.850 Y38.311 E6.6825
G1 X67.586 Y37.160 E6.7161
G1 X67.595 Y28.432 E6.9643
G92 E0.0000
G1 E-0.5000 F1800
G1 X67.466 Y38.429 F3600
G1 E0.0000 F1800
G92 E0.0000
G1 X67.466 Y47.253 E0.2509 F1800
G1 X67.451 Y47.546 E0.2593
G1 X67.361 Y48.399 E0.2837
G1 X67.239 Y48.974 E0.3004
G1 X66.929 Y49.930 E0.3290
G1 X66.690 Y50.466 E0.3457
G1 X66.187 Y51.336 E0.3742
G1 X65.999 Y51.595 E0.3833
G1 X66.187 Y51.854 E0.3924
G1 X66.690 Y52.725 E0.4210
G1 X66.929 Y53.261 E0.4377
G1 X67.239 Y54.217 E0.4663
G1 X67.361 Y54.791 E0.4830
G1 X67.451 Y55.645 E0.5074
G1 X67.466 Y55.938 E0.5157
G1 X67.466 Y56.245 E0.5245
G1 X67.498 Y56.113 E0.5284
G1 X68.322 Y54.473 E0.5805
G1 X69.326 Y53.357 E0.6232
G1 X70.766 Y52.430 E0.6719
G1 X72.313 Y51.975 E0.7178
G1 X76.050 Y51.975 E0.8241
G1 X75.742 Y51.627 E0.8373
G1 X74.927 Y49.946 E0.8904
G1 X74.643 Y48.709 E0.9265
G1 X74.643 Y42.735 E1.0964
G1 X72.406 Y42.735 E1.1600
G1 X70.858 Y42.280 E1.2059
G1 X69.308 Y41.281 E1.2583
G1 X68.285 Y40.127 E1.3022
G1 X67.470 Y38.444 E1.3554
G1 X67.466 Y38.429 E1.3558
G92 E0.0000
G1 E-0.5000 F1800
; feature inner perimeter
G1 X61.666 Y38.567 F3600
G1 X61.643 Y38.342
G1 X18.627 Y37.697
G1 E0.0000 F1800
G92 E0.0000
G1 X18.828 Y37.608 E0.0063 F1350
G1 X19.022 Y37.567 E0.0119
G1 X26.471 Y37.567 E0.2237
G1 X26.471 Y41.464 E0.3345
G1 X26.508 Y41.817 E0.3446
G1 X26.679 Y42.343 E0.3604
G1 X26.429 Y42.396 E0.3677
G1 X26.056 Y42.562 E0.3793
G1 X25.726 Y42.802 E0.3908
G1 X25.453 Y43.105 E0.4024
G1 X25.249 Y43.458 E0.4140
G1 X25.123 Y43.846 E0.4256
G1 X25.086 Y44.199 E0.4357
G1 X25.086 Y48.095 E0.5465
G1 X19.022 Y48.095 E0.7190
G1 X18.819 Y48.052 E0.7249
G1 X18.629 Y47.968 E0.7308
G1 X18.461 Y47.845 E0.7367
G1 X18.322 Y47.691 E0.7426
